X:13
T:Evit beva gant levenez
M:4/4
L:1/8
W:1. Evit beva gant levenez
W:N'eus ket ezomm aour na perlez,
W:Nag eur c'hastell a ve savet
W:E gern betek bro ar stered:
W:Dindan ar soul en eul lochenn
W:Ar paour a c'hell c'hoarzin laouen
W:Evit beva gant levenez
W:Karit Jezuz hag ar Werc'hez.
W:
W:2. Evit beva gant levenez
W:N'eus ket ezomm aour na perlez;
W:Hag ho pefe holl vel leve
W:Leon ha Treger ha Kerne,
W:Gant ho tanvez ne brenfet ket
W:Eun hanter-devez eurusted:
W:Evit beva gant levenez
W:Karit Jezuz hag ar Werc'hez.
W:
W:3. Evit beva gant levenez
W:N'eus ket ezomm aour na perlez.
W:Kalon an den, a zo c'hoantus,
W:P'en deus bet gwenn, e c'houlen ruz,
W:Pa ve sec'hour e c'houlen glao...
W:Eun dra benag a vank atao:
W:Evit beva gant levenez
W:Karit Jezuz hag ar Werc'hez.
W:
W:4. Evit beva gant levenez
W:Karit Jezuz hag ar Werc'hez.
W:Eurus, Eurus eo an hini
W:Zo da Jezuz ha da Vari;
W:Gant Jezuz hag e Vamm Santel
W:Mad eo beva, dous eo mervel:
W:Evit beva gant levenez
W:Karit Jezuz hag ar Werc'hez.
K:Gm
D2|G3F GABG|A6 B2|G3A BAGF|G4 z2D2|G3F GABG|A4 z2B2|G3A BAGFG4 z2G2|
A3B cdcB|A4 z2G2|A3B cdcB|A6 D2|G3F GABG|A4 z2d2|d3e dcBA|G6||
